SVG_Azure_Grouped/Compute/Lab Plan.svg

<?xml version="1.0" encoding="UTF-8" standalone="no"?>
<!-- Generated by Microsoft Visio, SVG Export Lab Plan.svg Page-1 -->

<svg
   xmlns:dc="http://purl.org/dc/elements/1.1/"
   xmlns:cc="http://creativecommons.org/ns#"
   xmlns:rdf="http://www.w3.org/1999/02/22-rdf-syntax-ns#"
   xmlns:svg="http://www.w3.org/2000/svg"
   xmlns="http://www.w3.org/2000/svg"
   xmlns:sodipodi="http://sodipodi.sourceforge.net/DTD/sodipodi-0.dtd"
   xmlns:inkscape="http://www.inkscape.org/namespaces/inkscape"
   width="0.78319061in"
   height="0.78748387in"
   viewBox="0 0 56.389634 56.699149"
   xml:space="preserve"
   class="st6"
   version="1.1"
   id="svg55"
   sodipodi:docname="Lab Plan.svg"
   style="font-size:12px;overflow:visible;color-interpolation-filters:sRGB;fill:none;fill-rule:evenodd;stroke-linecap:square;stroke-miterlimit:3"
   inkscape:version="0.92.5 (2060ec1f9f, 2020-04-08)"><metadata
   id="metadata59"><rdf:RDF><cc:Work
       rdf:about=""><dc:format>image/svg+xml</dc:format><dc:type
         rdf:resource="http://purl.org/dc/dcmitype/StillImage" /></cc:Work></rdf:RDF></metadata><sodipodi:namedview
   pagecolor="#ffffff"
   bordercolor="#666666"
   borderopacity="1"
   objecttolerance="10"
   gridtolerance="10"
   guidetolerance="10"
   inkscape:pageopacity="0"
   inkscape:pageshadow="2"
   inkscape:window-width="640"
   inkscape:window-height="480"
   id="namedview57"
   showgrid="false"
   inkscape:zoom="1.4193119"
   inkscape:cx="37.591135"
   inkscape:cy="37.786193"
   inkscape:window-x="0"
   inkscape:window-y="0"
   inkscape:window-maximized="0"
   inkscape:current-layer="svg55" />
	<style
   type="text/css"
   id="style2">
	<![CDATA[
		.st1 {fill:url(#grad0-6);stroke:none;stroke-linecap:butt;stroke-width:34}
		.st2 {fill:#ffffff;stroke:none;stroke-linecap:butt;stroke-width:34}
		.st3 {fill:#ffffff;fill-opacity:0.8;stroke:none;stroke-linecap:butt;stroke-width:34}
		.st4 {fill:#ffffff;fill-opacity:0.6;stroke:none;stroke-linecap:butt;stroke-width:34}
		.st5 {fill:url(#grad0-16);stroke:none;stroke-linecap:butt;stroke-width:34}
		.st6 {fill:none;fill-rule:evenodd;font-size:12px;overflow:visible;stroke-linecap:square;stroke-miterlimit:3}
	]]>
	</style>

	<defs
   id="Patterns_And_Gradients">
		<linearGradient
   id="grad0-6"
   x1="-4.5591679e-06"
   y1="67.088982"
   x2="45.335994"
   y2="67.088982"
   gradientTransform="scale(0.9014913,1.109273)"
   gradientUnits="userSpaceOnUse">
			<stop
   offset="0"
   stop-color="#005ba1"
   stop-opacity="1"
   id="stop4" />
			<stop
   offset="1"
   stop-color="#0078d4"
   stop-opacity="1"
   id="stop6" />
		</linearGradient>
		<linearGradient
   id="grad0-16"
   x1="0.30189916"
   y1="96.404419"
   x2="29.999799"
   y2="96.404419"
   gradientTransform="scale(1.0111644,0.98895882)"
   gradientUnits="userSpaceOnUse">
			<stop
   offset="0"
   stop-color="#50e6ff"
   stop-opacity="1"
   id="stop9" />
			<stop
   offset="1"
   stop-color="#32bedd"
   stop-opacity="1"
   id="stop11" />
		</linearGradient>
	</defs>
	<g
   id="g53"
   transform="translate(-34.000434,-33.995149)">
		<title
   id="title15">Page-1</title>
		<g
   id="group11232-1"
   transform="translate(34,-34.0157)">
			<title
   id="title17">Lab Plan.11232</title>
			<g
   id="group11233-2">
				<title
   id="title19">Sheet.11233</title>
				<g
   id="shape11234-3"
   transform="translate(0,-6.40915)">
					<title
   id="title21">Sheet.11234</title>
					<path
   d="m 0,123.03 a 1.66847,1.67628 -180 0 0 1.67,1.68 h 37.54 a 1.66847,1.67628 -180 0 0 1.66,-1.68 V 76.1 A 1.66847,1.67628 -180 0 0 39.21,74.42 H 1.67 A 1.66847,1.67628 -180 0 0 0,76.1 Z"
   class="st1"
   id="path23"
   inkscape:connector-curvature="0"
   style="fill:url(#grad0-6);stroke:none;stroke-width:34;stroke-linecap:butt" />
				</g>
				<g
   id="shape11235-7"
   transform="translate(4.97146,-42.246)">
					<title
   id="title26">Sheet.11235</title>
					<path
   d="M 29.69,122.4 H 10.36 A 0.443336,0.44541 0 0 1 9.903127,121.94779 L 9.91,120.49 a 0.443336,0.44541 0 0 1 0.456873,-0.43181 L 29.71,120.05 a 0.443336,0.44541 0 0 1 0.443336,0.44541 L 30.15,121.95 a 0.443336,0.44541 0 0 1 -0.439952,0.44541 z m -22.77,1.41 v -5.17 A 0.890057,0.894221 -180 0 0 6.029943,117.74578 L 0.89,117.75 a 0.886673,0.890821 -180 0 0 -0.886673,0.89082 L 0,123.81 a 0.886673,0.890821 -180 0 0 0.883289,0.89422 L 6.03,124.71 a 0.890057,0.894221 -180 0 0 0.890057,-0.89422 z"
   class="st2"
   id="path28"
   inkscape:connector-curvature="0"
   style="fill:#ffffff;stroke:none;stroke-width:34;stroke-linecap:butt" />
				</g>
				<g
   id="shape11236-9"
   transform="translate(4.96808,-28.1765)">
					<title
   id="title31">Sheet.11236</title>
					<path
   d="M 29.7,122.4 H 10.37 A 0.446721,0.44881 0 0 1 9.923279,121.95459 L 9.92,120.5 a 0.443336,0.44541 0 0 1 0.446721,-0.44541 L 29.71,120.05 a 0.443336,0.44541 0 0 1 0.443336,0.44541 L 30.15,121.95 a 0.450105,0.45221 0 0 1 -0.443336,0.45221 z M 5.59,119.1 H 1.32 v 4.27 h 4.27 z m 0.44,-1.34 a 0.890057,0.894221 0 0 1 0.890057,0.89422 L 6.92,123.81 a 0.890057,0.894221 0 0 1 -0.890057,0.89422 L 0.89,124.71 A 0.893441,0.897621 0 0 1 -5.7e-5,123.81578 L 0,118.64 a 0.893441,0.897621 0 0 1 0.890057,-0.90102 z"
   class="st3"
   id="path33"
   inkscape:connector-curvature="0"
   style="fill:#ffffff;fill-opacity:0.8;stroke:none;stroke-width:34;stroke-linecap:butt" />
				</g>
				<g
   id="shape11237-11"
   transform="translate(4.96808,-14.1069)">
					<title
   id="title36">Sheet.11237</title>
					<path
   d="M 29.7,122.4 H 10.37 A 0.443336,0.44541 0 0 1 9.926664,121.95459 L 9.92,120.5 a 0.446721,0.44881 0 0 1 0.443336,-0.44881 L 29.71,120.05 a 0.446721,0.44881 0 0 1 0.446721,0.44881 L 30.15,121.95 a 0.443336,0.44541 0 0 1 -0.456873,0.44541 z M 5.59,119.08 H 1.32 v 4.29 h 4.27 z m 0.44,-1.33 a 0.886673,0.890821 0 0 1 0.890057,0.89082 L 6.92,123.81 a 0.890057,0.894221 0 0 1 -0.890057,0.89422 L 0.89,124.71 A 0.893441,0.897621 0 0 1 -5.7e-5,123.81578 L 0,118.63 a 0.890057,0.894221 0 0 1 0.890057,-0.89082 z"
   class="st4"
   id="path38"
   inkscape:connector-curvature="0"
   style="fill:#ffffff;fill-opacity:0.6;stroke:none;stroke-width:34;stroke-linecap:butt" />
				</g>
				<g
   id="shape11238-13"
   transform="translate(26.0553)">
					<title
   id="title41">Sheet.11238</title>
					<path
   d="M 29.23,124.71 H 1.41 c -0.89,0 -1.41,-1.43 -0.91,-2.16 l 9.59,-14.04 a 1.09988,1.10503 -180 0 0 0.19,-0.62 V 98.61 A 0.551632,0.554213 -180 0 0 9.731752,98.055787 L 9.22,98.05 a 1.10326,1.10843 0 0 1 -1.1,-1.1 v -0.5 a 1.09988,1.10503 0 0 1 1.1,-1.11 h 12.21 a 1.09988,1.10503 0 0 1 1.1,1.11 v 0.5 a 1.10326,1.10843 0 0 1 -1.1,1.11 h -0.52 a 0.551632,0.554213 -180 0 0 -0.551632,0.554213 L 20.36,107.92 a 1.11003,1.11523 -180 0 0 0.2,0.63 l 9.58,13.99 c 0.5,0.74 -0.02,2.17 -0.91,2.17 z"
   class="st5"
   id="path43"
   inkscape:connector-curvature="0"
   style="fill:url(#grad0-16);stroke:none;stroke-width:34;stroke-linecap:butt" />
				</g>
				<g
   id="shape11239-17"
   transform="translate(30.6157,-2.74046)">
					<title
   id="title46">Sheet.11239</title>
					<path
   d="m 0.05,123.7 7.29,-10.66 a 2.65663,2.66906 -180 0 0 0.46,-1.51 v -4.31 a 0.846062,0.85002 0 0 1 0.849446,-0.85002 L 12.78,106.37 a 0.846062,0.85002 0 0 1 0.846062,0.85002 L 13.63,111.81 a 1.77335,1.78164 -180 0 0 0.31,1.02 l 7.45,10.88 a 0.632854,0.635815 0 0 1 -0.521174,0.99962 L 0.56,124.71 a 0.632854,0.635815 0 0 1 -0.511021,-1.00982 z"
   class="st2"
   id="path48"
   inkscape:connector-curvature="0"
   style="fill:#ffffff;stroke:none;stroke-width:34;stroke-linecap:butt" />
				</g>
			</g>
		</g>
	</g>
</svg>

<?xml version="1.0" encoding="UTF-8" standalone="no"?>
<!DOCTYPE svg PUBLIC "-//W3C//DTD SVG 1.1//EN" "http://www.w3.org/Graphics/SVG/1.1/DTD/svg11.dtd">
<!-- Generated by Microsoft Visio, SVG Export Lab Plan.svg Page-1 -->
<svg xmlns="http://www.w3.org/2000/svg" xmlns:xlink="http://www.w3.org/1999/xlink" xmlns:ev="http://www.w3.org/2001/xml-events"
		width="1.7276in" height="1.73206in" viewBox="0 0 124.387 124.709" xml:space="preserve" color-interpolation-filters="sRGB"
		class="st6">
	<style type="text/css">
	<![CDATA[
		.st1 {fill:url(#grad0-6);stroke:none;stroke-linecap:butt;stroke-width:34}
		.st2 {fill:#ffffff;stroke:none;stroke-linecap:butt;stroke-width:34}
		.st3 {fill:#ffffff;fill-opacity:0.8;stroke:none;stroke-linecap:butt;stroke-width:34}
		.st4 {fill:#ffffff;fill-opacity:0.6;stroke:none;stroke-linecap:butt;stroke-width:34}
		.st5 {fill:url(#grad0-16);stroke:none;stroke-linecap:butt;stroke-width:34}
		.st6 {fill:none;fill-rule:evenodd;font-size:12px;overflow:visible;stroke-linecap:square;stroke-miterlimit:3}
	]]>
	</style>

	<defs id="Patterns_And_Gradients">
		<linearGradient id="grad0-6" x1="0" y1="0" x2="1" y2="0" gradientTransform="rotate(-90 0.5 0.5)">
			<stop offset="0" stop-color="#005ba1" stop-opacity="1"/>
			<stop offset="1" stop-color="#0078d4" stop-opacity="1"/>
		</linearGradient>
		<linearGradient id="grad0-16" x1="0" y1="0" x2="1" y2="0" gradientTransform="rotate(89.407092835807 0.5 0.5)">
			<stop offset="0" stop-color="#50e6ff" stop-opacity="1"/>
			<stop offset="1" stop-color="#32bedd" stop-opacity="1"/>
		</linearGradient>
	</defs>
	<g>
		<title>Page-1</title>
		<g id="group10994-1" transform="translate(34,-34.0157)">
			<title>Lab Plan.10994</title>
			<g id="group10995-2">
				<title>Sheet.10995</title>
				<g id="shape10996-3" transform="translate(-2.8777E-13,-6.40915)">
					<title>Sheet.10996</title>
					<path d="M0 123.03 A1.66847 1.67628 -180 0 0 1.67 124.71 L39.21 124.71 A1.66847 1.67628 -180 0 0 40.87 123.03
								 L40.87 76.1 A1.66847 1.67628 -180 0 0 39.21 74.42 L1.67 74.42 A1.66847 1.67628 -180 0 0 0 76.1 L0
								 123.03 Z" class="st1"/>
				</g>
				<g id="shape10997-7" transform="translate(4.97146,-42.246)">
					<title>Sheet.10997</title>
					<path d="M29.69 122.4 L10.36 122.4 a0.443336 0.44541 0 0 1 -0.456873 -0.45221 L9.91 120.49 a0.443336 0.44541
								 0 0 1 0.456873 -0.43181 L29.71 120.05 a0.443336 0.44541 0 0 1 0.443336 0.44541 L30.15 121.95 a0.443336
								 0.44541 0 0 1 -0.439952 0.44541 L29.69 122.4 ZM6.92 123.81 L6.92 118.64 a0.890057 0.894221 -180
								 0 0 -0.890057 -0.894221 L0.89 117.75 a0.886673 0.890821 -180 0 0 -0.886673 0.890821 L0 123.81 a0.886673
								 0.890821 -180 0 0 0.883289 0.894221 L6.03 124.71 a0.890057 0.894221 -180 0 0 0.890057 -0.894221
								 Z" class="st2"/>
				</g>
				<g id="shape10998-9" transform="translate(4.96808,-28.1765)">
					<title>Sheet.10998</title>
					<path d="M29.7 122.4 L10.37 122.4 a0.446721 0.44881 0 0 1 -0.446721 -0.44541 L9.92 120.5 a0.443336 0.44541 0
								 0 1 0.446721 -0.44541 L29.71 120.05 a0.443336 0.44541 0 0 1 0.443336 0.44541 L30.15 121.95 a0.450105
								 0.45221 0 0 1 -0.443336 0.45221 L29.7 122.4 ZM5.59 119.1 L1.32 119.1 L1.32 123.37 L5.59 123.37 L5.59
								 119.1 ZM6.03 117.76 a0.890057 0.894221 0 0 1 0.890057 0.894221 L6.92 123.81 a0.890057 0.894221 0
								 0 1 -0.890057 0.894221 L0.89 124.71 a0.893441 0.897621 0 0 1 -0.890057 -0.894221 L0 118.64 a0.893441
								 0.897621 0 0 1 0.890057 -0.901021 L6.03 117.76 Z" class="st3"/>
				</g>
				<g id="shape10999-11" transform="translate(4.96808,-14.1069)">
					<title>Sheet.10999</title>
					<path d="M29.7 122.4 L10.37 122.4 a0.443336 0.44541 0 0 1 -0.443336 -0.44541 L9.92 120.5 a0.446721 0.44881 0
								 0 1 0.443336 -0.44881 L29.71 120.05 a0.446721 0.44881 0 0 1 0.446721 0.44881 L30.15 121.95 a0.443336
								 0.44541 0 0 1 -0.456873 0.44541 ZM5.59 119.08 L1.32 119.08 L1.32 123.37 L5.59 123.37 L5.59 119.08
								 ZM6.03 117.75 a0.886673 0.890821 0 0 1 0.890057 0.890821 L6.92 123.81 a0.890057 0.894221 0 0 1 -0.890057
								 0.894221 L0.89 124.71 a0.893441 0.897621 0 0 1 -0.890057 -0.894221 L0 118.63 a0.890057 0.894221
								 0 0 1 0.890057 -0.890821 L6.03 117.75 Z" class="st4"/>
				</g>
				<g id="shape11000-13" transform="translate(26.0553,2.98428E-13)">
					<title>Sheet.11000</title>
					<path d="M29.23 124.71 L1.41 124.71 C0.52 124.71 0 123.28 0.5 122.55 L10.09 108.51 A1.09988 1.10503 -180 0 0
								 10.28 107.89 L10.28 98.61 a0.551632 0.554213 -180 0 0 -0.548248 -0.554213 L9.22 98.05 A1.10326 1.10843
								 0 0 1 8.12 96.95 L8.12 96.45 A1.09988 1.10503 0 0 1 9.22 95.34 L21.43 95.34 A1.09988 1.10503 0 0
								 1 22.53 96.45 L22.53 96.95 A1.10326 1.10843 0 0 1 21.43 98.06 L20.91 98.06 a0.551632 0.554213 -180
								 0 0 -0.551632 0.554213 L20.36 107.92 A1.11003 1.11523 -180 0 0 20.56 108.55 L30.14 122.54 C30.64
								 123.28 30.12 124.71 29.23 124.71 Z" class="st5"/>
				</g>
				<g id="shape11001-17" transform="translate(30.6157,-2.74046)">
					<title>Sheet.11001</title>
					<path d="M0.05 123.7 L7.34 113.04 A2.65663 2.66906 -180 0 0 7.8 111.53 L7.8 107.22 a0.846062 0.85002 0 0 1 0.849446
								 -0.85002 L12.78 106.37 a0.846062 0.85002 0 0 1 0.846062 0.85002 L13.63 111.81 A1.77335 1.78164 -180
								 0 0 13.94 112.83 L21.39 123.71 a0.632854 0.635815 0 0 1 -0.521174 0.999623 L0.56 124.71 a0.632854
								 0.635815 0 0 1 -0.511021 -1.00982 Z" class="st2"/>
				</g>
			</g>
		</g>
	</g>
</svg>
